!!!CDT:
!!!PTL: Scherzi et arie a une, due, tre, et quattro voci per cantare nel clavicembalo ò altro simile istromento
!!!PPP: Venice
!!!PPR: Giacomo Vincenzi
!!!PDT: 1614
!!!RISM: C 2216
!!!rime:
!!!AGN: Madrigal
!!!SCT: Tsg20132a
!!!SCA: Tsg20132a
!!!voices:
!!!COM: Cifra, Antonio
!!!OTL: Certo è scemo il tuo onor, se non s'addita
**kern	**kern	**text	**kern	**text
*part3	*part2	*part2	*part1	*part1
*staff3	*staff2	*staff2	*staff1	*staff1
*I"Basso continuo	*I"Canto II	*	*I"Canto I	*
*I'Bc	*I'C II	*	*I'C I	*
*oclefF4	*oclefC1	*	*oclefC1	*
*clefF4	*clefG2	*	*clefG2	*
*k[b-]	*k[b-]	*	*k[b-]	*
*F:	*F:	*	*F:	*
*omet(C)	*omet(C)	*	*omet(C)	*
*M4/4	*M4/4	*	*M4/4	*
=1	=1	=1	=1	=1
!!LO:TX:a:t=Terza parte.
2G	1r	.	2r	.
[2G	.	.	2dd	Cer-
=2	=2	=2	=2	=2
4G]	1r	.	4bnX	-to è
4F	.	.	4.cc	scor-
4E	.	.	.	.
.	.	.	8cc	-no il
4D	.	.	4f	tuo ho-
=3	=3	=3	=3	=3
2.C	4r	.	2g	-nor,
.	4g	Cer-	.	.
.	4e	-to è	2r	.
4BB-y	[4f	scor-	.	.
=4	=4	=4	=4	=4
4AA	8f]	.	2r	.
.	8f	-no il	.	.
4GG	4B-y	tuo ho-	.	.
[2FF	4c	-nor,	4cc	se
.	4cc	se	4a	non
=5	=5	=5	=5	=5
2FF]	4.a	non	4cc	s'ad-
.	.	.	2dd	-di-
.	8f	s'ad-	.	.
2EE	2g	-di-	.	.
.	.	.	16ccL	-ta
.	.	.	16b-y	.
.	.	.	16a	.
.	.	.	16gJ	.
=6	=6	=6	=6	=6
2DD	2a	-ta	2f#X	.
2D	2r	.	2r	.
=7	=7	=7	=7	=7
4D	2r	.	2r	.
4C	.	.	.	.
[2BB-y	8r	.	8r	.
.	8dd	In-	8ffnXi	In-
.	8b-y	-ca-	8dd	-ca-
.	8cc	-te-	8ee	-te-
=8	=8	=8	=8	=8
4BB-]	4dd	-na-	4ff	-na-
4C	4cc	-ta al	4ee	-ta al
4D	4.b-y	tuo	4.dd	tuo
4E	.	.	.	.
.	8a	tri-	8cc	tri-
=9	=9	=9	=9	=9
[1F	[2a	-on-	16cc	-on-
.	.	.	16fL	-fo a-
.	.	.	16g	.
.	.	.	16aJ	.
.	.	.	16b-yL	.
.	.	.	16cc	.
.	.	.	16dd	.
.	.	.	16eeJ	.
.	16a]	.	2ff	.
.	16fL	-fo a-	.	.
.	16g	.	.	.
.	16aJ	.	.	.
.	16b-yL	.	.	.
.	16cc	.	.	.
.	16dd	.	.	.
.	16eeJ	.	.	.
=10	=10	=10	=10	=10
2F]	4.ff	.	4.dd	-van-
.	8ee	.	8cc	.
2G	8ddL	.	8b-yL	.
.	8ccJ	.	8aJ	.
.	8ddL	.	8b-yL	.
.	8b-yJ	.	8gJ	.
=11	=11	=11	=11	=11
2C	4cc	-van-	8aL	.
.	.	.	8gJ	.
.	16b-yL	.	2g	.
.	16a	.	.	.
.	16b-y	.	.	.
.	16ccJ	.	.	.
2D	2a	.	.	.
.	.	.	4f#X	.
=12	=12	=12	=12	=12
4GG	2g	-ti	4g	-ti
2G	.	.	4.b-y	Fe-
.	2r	.	.	.
.	.	.	8g	-mi-
4F#X	.	.	4a	-na hor
=13	=13	=13	=13	=13
4G	2r	.	4b-y	pre-
4A	.	.	4cc	-za a
[2B-y	4r	.	8ddL	for-
.	.	.	8eeJ	.
.	[4dd	Fe-	8ddL	.
.	.	.	8eeJ	.
=14	=14	=14	=14	=14
4B-]	8dd]	.	4ff	.
.	8b-y	-mi-	.	.
4A	4cc	-na hor	4f	-za
4G	4dd	pre-	2r	.
4F	4dd	-sa a	.	.
=15	=15	=15	=15	=15
1E-X	2ee-X	for-	2r	.
.	2b-y	-za	4r	.
.	.	.	4g	e
=16	=16	=16	=16	=16
4D	2r	.	4f	pria
4C	.	.	4e-X	tra-
2BB-y	4r	.	8dL	-di-
.	.	.	8e-iJ	.
.	4ff	e	8fL	.
.	.	.	8dJ	.
=17	=17	=17	=17	=17
2E-X	4ee-X	pria	8gL	.
.	.	.	8aJ	.
.	4dd	tra-	2b-y	.
2F	2cc	-di-	.	.
.	.	.	4a	.
=18	=18	=18	=18	=18
2BB-y	1b-y	-ta:	2b-y	-ta:
2B-y	.	.	4f	Que-
.	.	.	8f	-st'è il
.	.	.	8f	mag-
=19	=19	=19	=19	=19
2G	2r	.	2g	-gior,
2c	4g	Que-	2r	.
.	8g	-st'è il	.	.
.	8g	mag-	.	.
=20	=20	=20	=20	=20
2F	2a	-gior,	4cc	<Que-
.	.	.	8cc	-st'è il
.	.	.	8cc	mag-
2D	4a	<Que-	[2dd	-gior>
.	8a	-st'è il	.	.
.	8a	mag-	.	.
=21	=21	=21	=21	=21
2G	4b-y	-gior>	4dd]	.
.	4bnX	de'	4dd	de'
[2C	4.cc	ti-	4.ee-X	ti-
.	8b-i	-to-	8dd	-to-
=22	=22	=22	=22	=22
2C]	8a	-li e	4cc	-li e
.	8g	de'	.	.
.	2g	van-	4b-y	de'
2D	.	.	2a	van-
.	4f#X	.	.	.
=23	=23	=23	=23	=23
4GG	2g	-ti,	2g	-ti,
2G	.	.	.	.
.	2r	.	4r	.
4F#X	.	.	[4dd	Fe-
=24	=24	=24	=24	=24
4G	2r	.	8dd]	.
.	.	.	8b-y	-mi-
4A	.	.	4cc	-na hor
[2B-y	4r	.	4dd	pre-
.	[4dd	Fem-	8dL	-sa a
.	.	.	8eJ	.
=25	=25	=25	=25	=25
4B-]	8dd]	.	8fL	.
.	8b-y	-mi-	8gJ	.
4A	4cc	-na hor	4a	.
4G	4dd	pre-	2b-y	for-
4F	4dd	-sa a	.	.
=26	=26	=26	=26	=26
1E-X	2ee-X	for-	1g	-za
.	4b-y	-za e	.	.
.	[4b-y	pria	.	.
=27	=27	=27	=27	=27
4D	8b-]	.	1r	.
.	8a	tra-	.	.
4C	4a	-di-	.	.
2BB-y	4b-y	-ta,	.	.
.	4f	e	.	.
=28	=28	=28	=28	=28
2E-X	4.g	pria	4b-y	e
.	.	.	4.b-y	pria
.	8g	tra-	.	.
2F	2cc	-di-	.	.
.	.	.	8a	tra-
.	.	.	4a	-di-
=29	=29	=29	=29	=29
2BB-y	2b-y	-ta:	2b-y	-ta:
2B-y	2r	.	4f	Que-
.	.	.	8d	-st'è il
.	.	.	8f	mag-
=30	=30	=30	=30	=30
2G	4b-y	Que-	2g	-gior,
.	8g	-st'è il	.	.
.	8b-y	mag-	.	.
2c	2cc	-gior,	4g	<Que-
.	.	.	8e	-st'è il
.	.	.	8g	mag-
=31	=31	=31	=31	=31
2F	4cc	<Que-	2a	-gior,>
.	8a	-st'è il	.	.
.	8cc	mag-	.	.
2D	2dd	-gior>	4a	<Que-
.	.	.	8f	-st'è il
.	.	.	8a	mag-
=32	=32	=32	=32	=32
2G	4dd	<Que-	4b-y	-gior>
.	8b-y	-st'è il	4dd	de'
.	8dd	mag-	.	.
[2C	4.ee-X	-gior>	4.cc	ti-
.	8dd	de'	8b-y	-to-
=33	=33	=33	=33	=33
2C]	8cc	ti-	8a	-li e
.	8b-y	-to-	8g	de'
.	8b-y	-li e	2g	van-
.	8a	de'	.	.
2D	2a	van-	.	.
.	.	.	4f#X	.
=34	=34	=34	=34	=34
1GG	1g	-ti.	1g	-ti.
=35||	=35||	=35||	=35||	=35||
!	!	!	!LO:TX:a:t=Quarta, & ultima parte.	!
2G	2r	.	4r	.
.	.	.	8bnX	Tem-
.	.	.	8cc	-po
[2G	4r	.	2dd	fu
.	8bnX	Tem-	.	.
.	8cc	-po	.	.
=36	=36	=36	=36	=36
4G]	2dd	fu	2r	.
4F	.	.	.	.
4E	2r	.	4r	.
4D	.	.	8bnX	ch'io
.	.	.	8bni	ti
=37	=37	=37	=37	=37
2.C	1r	.	2cc	chie-
.	.	.	2g	-si
4BB-y	.	.	.	.
=38	=38	=38	=38	=38
4AA	4r	.	2r	.
4GG	8e	ch'io	.	.
.	8e	ti	.	.
[2FF	4f	chie-	4r	.
.	4c	-si	4a	e
=39	=39	=39	=39	=39
2FF]	4r	.	4.cc	pa-
.	4a	e	.	.
.	.	.	8f	-ce e
2EE	4.cc	pa-	[2g	vi-
.	8g	-ce e	.	.
=40	=40	=40	=40	=40
2DD	2b-y	vi-	2g]	.
[2D	2a	-ta,	2f#X	-ta,
=41	=41	=41	=41	=41
4D]	1r	.	2r	.
4C	.	.	.	.
[2BB-y	.	.	4fnXi	Dol-
.	.	.	8f	-ce hor
.	.	.	8e	sa-
=42	=42	=42	=42	=42
4BB-]	1r	.	4d	-ria
4C	.	.	4e	con
4D	.	.	4f	mor-
4E	.	.	4g	-te u-
=43	=43	=43	=43	=43
[1F	4cc	Dol-	8aL	-scir
.	.	.	8b-yJ	.
.	8cc	-ce ho	8aL	.
.	8b-y	sa-	8b-yJ	.
.	4a	-ria	2cc	.
.	4b-y	con	.	.
=44	=44	=44	=44	=44
2F]	4cc	mor-	2a	de'
.	4dd	-te u-	.	.
2G	[2ee-X	-scir	8b-yL	pian-
.	.	.	8aJ	.
.	.	.	8aL	.
.	.	.	8gJ	.
=45	=45	=45	=45	=45
2C	4ee-_	.	8aL	.
.	.	.	8gJ	.
.	8ee-]	.	2g	.
.	8a	de'	.	.
2D	2a	pian-	.	.
.	.	.	4f#X	.
=46	=46	=46	=46	=46
4GG	2g	-ti;	2g	-ti;
2G	.	.	.	.
.	8r	.	2r	.
.	8dd	Ma	.	.
4F#X	8dd	non	.	.
.	8dd	la	.	.
=47	=47	=47	=47	=47
4G	4ee-X	chie-	2r	.
4A	4cc	-do a	.	.
[2B-y	2dd	te,	8r	.
.	.	.	8dd	Ma
.	.	.	8dd	non
.	.	.	8dd	la
=48	=48	=48	=48	=48
4B-]	2r	.	4ff	chie-
4A	.	.	4cc	-do a
4G	8r	.	2dd	te,
.	8dd	<Ma	.	.
4F	8dd	non	.	.
.	8dd	la	.	.
=49	=49	=49	=49	=49
2.E-X	4ee-X	chie-	8r	.
.	.	.	8g	<Ma
.	4e-i	-do a	8g	non
.	.	.	8g	la
.	2g	te,>	4b-y	chie-
4E-i	.	.	4e-X	-do a
=50	=50	=50	=50	=50
4D	8r	.	4f	te,>
.	8a	<Ma	.	.
4C	8a	non	4r	.
.	8a	la	.	.
2BB-y	4b-y	chie-	4d	ché
.	4f	-do a	[4b-y	non
=51	=51	=51	=51	=51
2E-X	8g	te,>	8b-]	.
.	8g	ché	8g	è
.	8ee-X	non	2b-y	co-
.	8dd	è	.	.
2F	2cc	co-	.	.
.	.	.	4a	.
=52	=52	=52	=52	=52
2BB-y	1b-y	-sa	2b-y	-sa
2B-y	.	.	4r	.
.	.	.	4dd	Ch'es-
=53	=53	=53	=53	=53
2G	4r	.	8b-y	-sen-
.	.	.	8b-y	-do
.	4g	Ch'es-	8b-y	do-
.	.	.	8a	-no
2c	8e	-sen-	4g	tuo,
.	8e	-do	.	.
.	8e	do-	4cc	Ch'es-
.	8d	-no	.	.
=54	=54	=54	=54	=54
2F	4c	tuo,	4a	-sen-
.	4cc	<Ch'es-	8a	-do,
.	.	.	8a	Ch'es-
2D	8dd	-sen-	8f	-sen-
.	8dd	-do	8f	-do
.	8dd	do-	8f	do-
.	8cc	-no	8e	-no
=55	=55	=55	=55	=55
2G	2bnX	tuo,>	2d	tuo
[2C	4.cc	non	4r	.
.	.	.	4cc	non
.	8c	mi	.	.
=56	=56	=56	=56	=56
4C]	4e-X	sia o-	4.g	mi
4C	2g	-dio-	.	.
.	.	.	8a	sia o-
2D	.	.	2a	-dio-
.	4f#X	.	.	.
=57	=57	=57	=57	=57
4GG	2g	-sa,	2g	-sa,
2G	.	.	.	.
.	2r	.	8r	.
.	.	.	8dd	Ma
4F#X	.	.	8dd	non
.	.	.	8dd	la
=58	=58	=58	=58	=58
4G	2r	.	4b-y	chie-
4A	.	.	4cc	-do a
[2B-y	8r	.	2f	te,
.	8ff	Ma	.	.
.	8ff	non	.	.
.	8ff	la	.	.
=59	=59	=59	=59	=59
4B-]	4dd	chie-	1r	.
4A	4ff	-do a	.	.
4G	2b-y	te,	.	.
4F	.	.	.	.
=60	=60	=60	=60	=60
2.E-X	2r	.	8r	.
.	.	.	8b-y	<Ma
.	.	.	8b-y	non
.	.	.	8b-y	la
.	8r	.	4g	chie-
.	8ee-X	<Ma	.	.
4E-i	8ee-i	non	4b-y	-do a
.	8ee-i	la	.	.
=61	=61	=61	=61	=61
4D	4b-y	chie-	4f	te,>
4C	4cc	-do a	8r	.
.	.	.	8cc	ché
2BB-y	4.f	te,>	4dd	non
.	.	.	4ff	è
.	8f	ché	.	.
=62	=62	=62	=62	=62
2E-X	4g	non	8ee-XL	co-
.	.	.	8ffJ	.
.	2b-y	è	8ee-iL	.
.	.	.	8ddJ	.
2F	.	.	2cc	.
.	4a	co-	.	.
=63	=63	=63	=63	=63
2BB-y	2b-y	-sa	2b-y	-sa
2B-y	2r	.	8r	.
.	.	.	8f	Ch'es-
.	.	.	8f	-sen-
.	.	.	8f	-do
=64	=64	=64	=64	=64
2F	2r	.	8g	do-
.	.	.	8a	-no
.	.	.	4b-y	tuo,
2c	8r	.	8r	.
.	8g	Ch'es-	8e	<Ch'es-
.	8f	-sen-	8e	-sen-
.	8g	-do	8e	-do
=65	=65	=65	=65	=65
2F	8a	do-	8f	do-
.	8b-y	-no	8g	-no
.	4cc	tuo,	4a	tuo,>
2D	8r	.	8r	.
.	8a	<Ch'es-	8f	<Ch'es-
.	8a	-sen-	8f	-sen-
.	8a	-do	8f	-do
=66	=66	=66	=66	=66
2G	8b-y	do-	8g	do-
.	8cc	-no	8a	-no
.	4dd	tuo>	4b-y	tuo>
[2C	4.cc	non	4r	.
.	.	.	[4cc	non
.	8b-y	mi	.	.
=67	=67	=67	=67	=67
2C]	4a	sia o-	8cc]	.
.	.	.	8b-y	mi
.	2g	-dio-	4a	sia o-
2D	.	.	2a	-dio-
.	4f#X	.	.	.
=68	=68	=68	=68	=68
1GGl	1gl	-sa.	1gl	-sa.
==	==	==	==	==
*-	*-	*-	*-	*-
!!!system-decoration: [*]
!!!RDF**kern: i = editorial accidental
!!!RDF**kern: l = terminal long
!!!ENC: Emiliano Ricciardi
!!!END:
!!!EED: Ricciardi, Emiliano
!!!EEV: 2020/02/02
!!!YEC: Copyright 2018 Emiliano Ricciardi, All Rights Reserved
!!!ONB: Translated from MusicXML on 2020/02/02
!!@@BEGIN:	VERSEDATA
!!@CATALOGNUM:	Tsg20132
!!@LAST_MODIFIED: 2020/07/12
!!@TITLE:		Certo è scemo il tuo onor, se non s'addita
!!@CANTO:		XX
!!@OTTAVA:	132
!!@MANUSRC:	G-Al, G-Au, G-Br<sub>2</sub>, G-Es<sub>1</sub>, G-Es<sub>2</sub>, G-Es<sub>3</sub>, G-F, G-Fr, G-Fr<sub>1</sub>, G-Fr<sub>2</sub>, G-Mc<sub>1</sub>, G-Mr, G-Mt, G-N, G-Ol
!!@PRINTSRC:	G-1580CM, G-1581B, G-1581CV, G-1581R, G-1581MR, G-1581P, G-1581V, G-1581V<sub>bis</sub>, G-1582C, G-1582M, G-1582MC, G-1582P, G-1582SC, G-1582SC<sub>bis</sub>, G-1583S, G-1584O, G-1584S, G-1585C, G-1585S, G-1588S, G-1589S, G-1590B, G-1590S, G-1592S, G-1593S, G-1594C, G-1595C, G-1597C, G-1598C, G-1599C, G-1600C, G-1600S, G-1601C, G-1601R, G-1602C, G-1604C, G-1604Cl, G-1604F, G-1604P, G-1606B, G-1606B<sub>bis</sub>, G-1606L, G-1607ZR, G-1608DP, G-1609GC, G-1610M, G-1611S, G-1611V, G-1612P, G-1613M, G-1613P, G-1613V, G-1615P, G-1616M, G-1617P, G-1619B, G-1619V, G-1620M, G-1620S, G-1621R, G-1624I, G-1624MT, G-1625C, G-1625S, G-1625SS, G-1626C, G-1626Co, G-1627M, G-1628T, G-1628Tu, G-1630L, G-1630T, G-1632FT, G-1639CF, G-1642M, G-1643I, G-1644P, G-1644S
!!@@BEGIN:	VERSES
!!@ABOUTIT:
!!@ABOUTEN:
!!@EDITOR:	Angelo Solerti
!!@EDITION_TITLE: Gerusalemme liberata. Poema eroico di Torquato Tasso. Edizione critica sui manoscritti e le prime stampe.
!!@EDITION_LOC:	Florence
!!@EDITION_PUB:	G. Barbera
!!@EDITION_DATE:  1895
!!@EDITION_VOL:
!!@EDITION_PAGE:
!!@TRANSLATOR:	Emiliano Ricciardi and Amyrose McCue Gill
!!@VERSE:
!!	Certo è scemo il tuo onor, se non s’addita
!!	Incatenata al tuo trionfo innanti
!!	Femmina or presa a forza, e pria tradita.
!!	Quest’è ’l maggior de’ titoli, e de’ vanti.
!!	Tempo fu ch’io ti chiesi e pace, e vita:
!!	Dolce or saria con morte uscir di pianti;
!!	Ma non la chiedo a te; ché non è cosa
!!	Ch’essendo dono tuo, non mi sia odiosa.
!!@TVERSE:
!!	Surely your honor is diminished, if she does not declare herself
!!	Enchained before your triumph
!!	A woman now taken by force, and earlier betrayed.
!!	This is the greatest of titles, and of commendations.
!!	Time was that I asked you for peace and life:
!!	Sweet now it would be to escape laments by means of death;
!!	But I do not ask it of you; for it is not something
!!	That, being a gift from you, would not be hated by me.
!!@@END:		VERSES
!!@OTHER_CRIT_ED:  Torquato Tasso, <i>Gerusalemme liberata</i>, ed. Lanfranco Caretti, 2 vols. (Bari: Laterza, 1967).
!!@ATTRIBUTION_ABOUT:
!!@DATING:	mid-1560s through 1570s
!!@DEDICATEE:	Duke Alfonso II d'Este
!!@COMMENTARY:
!!@@END:		VERSEDATA
!!@@BEGIN: SETTING
!!@CATALOGNUM:	Tsg20132a
!!@CANTO:		XX
!!@OTTAVA:	132
!!@TITLE:	Certo è scemo il tuo onor, se non s'addita
!!@SETTINGTITLE: Certo è scorno il tuo honor se non s'addita
!!@COMPOSER:	Cifra, Antonio
!!@PARTS:		3-4 (verses 1-4; 5-8) of 4
!!@PRINCEPSTITLE:	Scherzi et arie a une, due, tre, et quattro voci per cantare nel clavicembalo ò altro simile istromento
!!@PRINCEPSLOC:	Venice
!!@NORMLOC:	Venice
!!@NORMPUB:	Giacomo Vincenzi
!!@NORMPUBSHORT:	G. Vincenzi
!!@PRINCEPSPUB:	Giacomo Vincenzi
!!@PRINCEPSYEAR:	1614
!!@PRINCEPSRISM:	C 2216
!!@OVOICES:	2+bc
!!@EXTANTVOICES:	2+bc
!!@OMENSURATION:	C
!!@OCLEFS:	C1,C1,F4
!!@OTIME:		
!!@OKEYSIG:	
!!@FINAL:		G
!!@TIMPEDITOR:	Ricciardi, Emiliano
!!@REPRINTS:	
!!@@END: SETTING
